icons/svg/amenity_colored/recycling_container.svg

<?xml version="1.0" encoding="UTF-8" standalone="no"?>
<!-- Created with Inkscape (http://www.inkscape.org/) -->

<svg
   xmlns:dc="http://purl.org/dc/elements/1.1/"
   xmlns:cc="http://creativecommons.org/ns#"
   xmlns:rdf="http://www.w3.org/1999/02/22-rdf-syntax-ns#"
   xmlns:svg="http://www.w3.org/2000/svg"
   xmlns="http://www.w3.org/2000/svg"
   xmlns:sodipodi="http://sodipodi.sourceforge.net/DTD/sodipodi-0.dtd"
   xmlns:inkscape="http://www.inkscape.org/namespaces/inkscape"
   version="1.0"
   width="580"
   height="580"
   id="svg2"
   sodipodi:version="0.32"
   inkscape:version="0.91 r"
   sodipodi:docname="recycling_container.svg"
   inkscape:output_extension="org.inkscape.output.svg.inkscape">
  <metadata
     id="metadata2975">
    <rdf:RDF>
      <cc:Work
         rdf:about="">
        <dc:format>image/svg+xml</dc:format>
        <dc:type
           rdf:resource="http://purl.org/dc/dcmitype/StillImage" />
        <cc:license
           rdf:resource="http://web.resource.org/cc/PublicDomain" />
        <dc:language>en</dc:language>
        <dc:title></dc:title>
      </cc:Work>
    </rdf:RDF>
  </metadata>
  <sodipodi:namedview
     inkscape:window-height="1006"
     inkscape:window-width="1920"
     inkscape:pageshadow="2"
     inkscape:pageopacity="0.0"
     guidetolerance="10.0"
     gridtolerance="10.0"
     objecttolerance="10.0"
     borderopacity="1.0"
     bordercolor="#666666"
     pagecolor="#ffffff"
     id="base"
     inkscape:zoom="0.46083856"
     inkscape:cx="532.82937"
     inkscape:cy="437.30594"
     inkscape:window-x="1680"
     inkscape:window-y="0"
     inkscape:current-layer="svg2"
     showgrid="false"
     inkscape:window-maximized="1" />
  <defs
     id="defs4">
    <inkscape:perspective
       sodipodi:type="inkscape:persp3d"
       inkscape:vp_x="0 : 290 : 1"
       inkscape:vp_y="0 : 1000 : 0"
       inkscape:vp_z="580 : 290 : 1"
       inkscape:persp3d-origin="290 : 193.33333 : 1"
       id="perspective2441" />
    <inkscape:perspective
       id="perspective3452"
       inkscape:persp3d-origin="30 : 20 : 1"
       inkscape:vp_z="60 : 30 : 1"
       inkscape:vp_y="0 : 1000 : 0"
       inkscape:vp_x="0 : 30 : 1"
       sodipodi:type="inkscape:persp3d" />
    <symbol
       viewBox="244.5 110 489 219.9"
       id="symbol-university">
      <path
         id="path4460"
         d="M79,43l57,119c0,0,21-96,104-96s124,106,124,106l43-133l82-17L0,17L79,43z" />
      <path
         id="path4462"
         d="M94,176l-21,39"
         stroke-width="20"
         stroke="#000000"
         fill="none" />
      <path
         id="path4464"
         d="M300,19c0,10.5-22.6,19-50.5,19S199,29.5,199,19s22.6-19,50.5-19S300,8.5,300,19z" />
      <path
         id="path4466"
         d="M112,216l-16-38L64,88c0,0-9-8-4-35s16-24,16-24"
         stroke-width="20"
         stroke="#000000"
         ill="none" />
    </symbol>
    <inkscape:perspective
       id="perspective4471"
       inkscape:persp3d-origin="372.04724 : 350.78739 : 1"
       inkscape:vp_z="744.09448 : 526.18109 : 1"
       inkscape:vp_y="0 : 1000 : 0"
       inkscape:vp_x="0 : 526.18109 : 1"
       sodipodi:type="inkscape:persp3d" />
    <inkscape:perspective
       id="perspective4668"
       inkscape:persp3d-origin="6 : 4 : 1"
       inkscape:vp_z="12 : 6 : 1"
       inkscape:vp_y="0 : 1000 : 0"
       inkscape:vp_x="0 : 6 : 1"
       sodipodi:type="inkscape:persp3d" />
  </defs>
  <g
     id="g1327">
    <path
       d="M 66.275,1.768 C 24.94,1.768 1.704,23.139 1.704,66.804 L 1.704,516.927 C 1.704,557.771 22.599,579.156 63.896,579.156 L 515.92,579.156 C 557.227,579.156 578.149,558.841 578.149,516.927 L 578.149,66.804 C 578.149,24.203 557.227,1.768 514.628,1.768 C 514.624,1.768 66.133,1.625 66.275,1.768 z "
       style="fill:#111;stroke:#eee;stroke-width:3.40799999"
       id="path1329" />
  </g>
  <path
     style="font-style:normal;font-variant:normal;font-weight:normal;font-stretch:normal;font-size:40px;line-height:125%;font-family:NPSPICT3;-inkscape-font-specification:NPSPICT3;text-align:start;writing-mode:lr-tb;text-anchor:start;fill:#ffffff;fill-opacity:1;stroke:none;stroke-width:1px;stroke-linecap:butt;stroke-linejoin:miter;stroke-opacity:1"
     d="m 244.05017,312.75923 -39.51434,-68.84859 -79.46961,0 32.30399,18.70027 -19.97114,34.4178 c -1.70324,3.12112 -2.55482,6.38049 -2.55476,9.77808 -6e-5,3.39777 0.85152,6.65713 2.55476,9.77808 l 31.43509,54.81691 c 1.41778,-3.96827 2.83565,-7.37028 4.2536,-10.20603 l 39.09935,-67.13678 31.86306,18.70026 z m -59.05753,55.24486 c -2.27386,3.68301 -3.41075,7.64698 -3.41066,11.89192 -9e-5,6.51873 2.33851,12.04321 7.01583,16.57345 4.67712,4.53025 10.27076,6.79538 16.78095,6.79538 l 78.19872,0 0,-63.31113 -82.43933,0 c -0.57074,1.13262 -2.69753,4.8156 -6.3804,11.04897 l -9.76511,17.00141 z m 105.80818,-156.81241 79.04164,0 39.9423,-68.83562 -32.29101,18.70027 -19.98411,-34.43079 c -3.68328,-6.5098 -9.34607,-9.76482 -16.98844,-9.76512 l -62.89617,0 c 2.55024,2.82737 4.67703,5.65878 6.3804,8.49423 l 38.65844,67.13677 -6.36743,3.82564 -25.49562,14.87462 z m -38.67141,-90.93356 c -9.06932,2.8e-4 -15.869,3.96424 -20.3991,11.8919 l -39.51434,67.99269 c 15.00849,8.78402 33.28078,19.2667 54.81691,31.44807 12.74332,-21.81245 26.48103,-45.60922 41.21318,-71.39038 l -15.71755,-28.05038 c -4.53044,-7.92766 -11.33013,-11.89162 -20.3991,-11.8919 l 0,0 z m 101.56756,218.83968 0,-7.65128 0,-29.30831 -39.52732,68.83562 39.52732,68.42063 0,-36.97257 39.51434,0 c 7.65095,0 13.45642,-3.25935 17.41639,-9.77807 l 31.44807,-54.81692 c -4.24531,1.13263 -7.78564,1.6989 -10.62102,1.69885 l -77.75778,-0.42795 z m 58.64254,-116.42919 c -1.41819,0.84742 -19.69481,11.33011 -54.82987,31.44806 17.56739,30.31131 31.45208,54.25072 41.6541,71.81834 l 31.86306,0 c 9.35409,6e-5 16.29644,-3.96823 20.82706,-11.90489 4.24456,-7.6512 4.10192,-15.44079 -0.42796,-23.36884 l -39.08639,-67.99267 z"
     id="flowRoot3192"
     inkscape:connector-curvature="0" />
  <path
     style="color:#000000;clip-rule:nonzero;display:inline;overflow:visible;visibility:visible;opacity:1;isolation:auto;mix-blend-mode:normal;color-interpolation:sRGB;color-interpolation-filters:linearRGB;solid-color:#000000;solid-opacity:1;fill:none;fill-opacity:0.77272728;fill-rule:nonzero;stroke:#ffffff;stroke-width:25.57109451;stroke-linecap:round;stroke-linejoin:round;stroke-miterlimit:4;stroke-dasharray:none;stroke-dashoffset:0;stroke-opacity:1;marker:none;color-rendering:auto;image-rendering:auto;shape-rendering:auto;text-rendering:auto;enable-background:accumulate"
     d="m 57.015131,64.568765 465.969739,0 -71.60024,464.151675 -322.76927,0 z"
     id="rect4144"
     inkscape:connector-curvature="0"
     sodipodi:nodetypes="ccccc" />
</svg>

<svg width="580" height="580" viewBox="0 0 580 580" fill="none" xmlns="http://www.w3.org/2000/svg">
<g clip-path="url(#clip0)">
<path d="M66.275 1.76799C24.94 1.76799 1.70398 23.139 1.70398 66.804V516.927C1.70398 557.771 22.599 579.156 63.896 579.156H515.92C557.227 579.156 578.149 558.841 578.149 516.927V66.804C578.149 24.203 557.227 1.76799 514.628 1.76799C514.624 1.76799 66.133 1.62499 66.275 1.76799Z" fill="#111111" stroke="#EEEEEE" stroke-width="3.408"/>
<path d="M244.05 312.759L204.536 243.911H125.066L157.37 262.611L137.399 297.029C135.696 300.15 134.844 303.409 134.844 306.807C134.844 310.205 135.696 313.464 137.399 316.585L168.834 371.402C170.252 367.434 171.67 364.031 173.088 361.196L212.187 294.059L244.05 312.759ZM184.993 368.004C182.719 371.687 181.582 375.651 181.582 379.896C181.582 386.415 183.92 391.939 188.598 396.469C193.275 401 198.869 403.265 205.379 403.265H283.577V339.954H201.138C200.567 341.086 198.441 344.769 194.758 351.003L184.993 368.004V368.004ZM290.801 211.192H369.842L409.785 142.356L377.494 161.056L357.51 126.626C353.826 120.116 348.164 116.861 340.521 116.86H277.625C280.175 119.688 282.302 122.519 284.005 125.355L322.664 192.491L316.296 196.317L290.801 211.192V211.192ZM252.129 120.258C243.06 120.258 236.26 124.222 231.73 132.15L192.216 200.143C207.224 208.927 225.497 219.409 247.033 231.591C259.776 209.778 273.514 185.982 288.246 160.2L272.528 132.15C267.998 124.222 261.198 120.258 252.129 120.258V120.258ZM353.697 339.098V331.447V302.138L314.17 370.974L353.697 439.394V402.422H393.211C400.862 402.422 406.668 399.163 410.628 392.644L442.076 337.827C437.83 338.96 434.29 339.526 431.455 339.526L353.697 339.098ZM412.339 222.669C410.921 223.516 392.645 233.999 357.51 254.117C375.077 284.428 388.962 308.367 399.164 325.935H431.027C440.381 325.935 447.323 321.967 451.854 314.03C456.098 306.379 455.956 298.589 451.426 290.661L412.339 222.669V222.669Z" fill="white"/>
<path d="M57.0151 64.5688H522.985L451.385 528.72H128.615L57.0151 64.5688Z" stroke="white" stroke-width="25.5711" stroke-linecap="round" stroke-linejoin="round"/>
</g>
<defs>
<clipPath id="clip0">
<path d="M0 0H580V580H0V0Z" fill="white"/>
</clipPath>
</defs>
</svg>
